64x64/apps/gnome-rdp.svg

<svg xmlns="http://www.w3.org/2000/svg" width="64" height="64" version="1">
 <path style="opacity:0.2" d="m 16.000323,51.376036 0,1.999984 c 0,1.453989 1.190591,2.62398 2.66798,2.62398 l 26.663794,0 c 1.477989,0 2.66798,-1.169991 2.66798,-2.62398 l 0,-1.999984 c 0,1.453988 -1.189991,2.623979 -2.66798,2.623979 l -26.663794,0 c -1.477389,0 -2.66798,-1.169991 -2.66798,-2.623979 z"/>
 <rect style="fill:#8e8e8e" width="42" height="32" x="-55" y="-48" rx="2.626" ry="2.666" transform="matrix(0,-1,-1,0,0,0)"/>
 <path style="opacity:0.2" d="m 6.0004002,45.500081 0,1.999984 c 0,1.38399 1.1611911,2.499981 2.60158,2.499981 l 46.7956398,0 c 1.439989,0 2.60198,-1.115991 2.60198,-2.499981 l 0,-1.999984 c 0,1.383989 -1.161991,2.499981 -2.60198,2.499981 l -46.7956398,0 c -1.4407889,0 -2.60198,-1.115992 -2.60198,-2.499981 z"/>
 <rect style="fill:#4f4f4f" width="40" height="52" x="-49" y="-58" rx="2.5" ry="2.6" transform="matrix(0,-1,-1,0,0,0)"/>
 <rect style="fill:#2c80c2" width="32" height="44" x="-45" y="-54" rx="0" ry="0" transform="matrix(0,-1,-1,0,0,0)"/>
 <path style="opacity:0.1;fill:#f4f4f7" d="M 8.6015625 9 C 7.1611736 9 6 10.115011 6 11.5 L 6 12.5 C 6 11.115011 7.1611736 10 8.6015625 10 L 55.398438 10 C 56.838426 10 58 11.115011 58 12.5 L 58 11.5 C 58 10.115011 56.838426 9 55.398438 9 L 8.6015625 9 z"/>
 <path style="opacity:0.2" d="M 20.300781,18.000357 C 19.580581,18.000357 19,18.595214 19,19.333308 l 0,18.349873 c 0,0.738095 0.580581,1.299773 1.300781,1.299773 l 5.699219,0 0,1.664718 c 0,0.738092 0.596354,1.482736 1.300781,1.33295 l 4.699219,0 4.699219,0 c 0.7202,0 1.300781,-0.594858 1.300781,-1.33295 l 0,-1.664718 5.699219,0 C 44.419419,38.982954 45,38.421276 45,37.683181 l 0,-18.349873 c 0,-0.738094 -0.580581,-1.332951 -1.300781,-1.332951 L 32,18.000357 Z M 23,20.998033 l 9,0 9,0 c 0.554,0 1,0.445654 1,0.999225 l 0,12.988796 c 0,0.553571 -0.446,0.999225 -1,0.999225 l -9,0 -9,0 c -0.554,0 -1,-0.445654 -1,-0.999225 l 0,-12.988796 c 0,-0.553571 0.449391,-0.938024 1,-0.999225 z"/>
 <path style="fill:#f4f4f7" d="M 20.300781,17.000742 C 19.580581,17.000742 19,17.595599 19,18.333693 l 0,18.349873 c 0,0.738095 0.580581,1.299773 1.300781,1.299773 l 5.699219,0 0,1.664718 c 0,0.738092 0.596354,1.482736 1.300781,1.33295 l 4.699219,0 4.699219,0 c 0.7202,0 1.300781,-0.594858 1.300781,-1.33295 l 0,-1.664718 5.699219,0 C 44.419419,37.983339 45,37.421661 45,36.683566 L 45,18.333693 C 45,17.595599 44.416801,17.0621 43.699219,17.000742 L 32,17.000742 Z M 23,19.998418 l 9,0 9,0 c 0.554,0 1,0.445654 1,0.999225 l 0,12.988796 c 0,0.553571 -0.446,0.999225 -1,0.999225 l -9,0 -9,0 c -0.554,0 -1,-0.445654 -1,-0.999225 l 0,-12.988796 c 0,-0.553571 0.449391,-0.938024 1,-0.999225 z"/>
</svg>

<svg xmlns="http://www.w3.org/2000/svg" width="64" height="64" version="1"><path style="opacity:.2" d="M16 51.376v2C16 54.83 17.19 56 18.668 56h26.664C46.81 56 48 54.83 48 53.376v-2C48 52.83 46.81 54 45.332 54H18.668C17.191 54 16 52.83 16 51.376z"/><rect style="fill:#8e8e8e" width="42" height="32" x="-55" y="-48" rx="2.626" ry="2.666" transform="matrix(0 -1 -1 0 0 0)"/><path style="opacity:.2" d="M6 45.5v2C6 48.884 7.162 50 8.602 50h46.796C56.838 50 58 48.884 58 47.5v-2c0 1.384-1.162 2.5-2.602 2.5H8.602C7.162 48 6 46.884 6 45.5z"/><rect style="fill:#4f4f4f" width="40" height="52" x="-49" y="-58" rx="2.5" ry="2.6" transform="matrix(0 -1 -1 0 0 0)"/><rect style="fill:#2c80c2" width="32" height="44" x="-45" y="-54" rx="0" ry="0" transform="matrix(0 -1 -1 0 0 0)"/><path style="opacity:.1;fill:#f4f4f7" d="M8.602 9C7.162 9 6 10.115 6 11.5v1C6 11.115 7.161 10 8.602 10h46.796C56.838 10 58 11.115 58 12.5v-1c0-1.385-1.162-2.5-2.602-2.5H8.602z"/><path style="opacity:.2" d="M20.3 18c-.72 0-1.3.595-1.3 1.333v18.35c0 .738.58 1.3 1.3 1.3H26v1.665c0 .738.596 1.482 1.3 1.333h9.4c.72 0 1.3-.595 1.3-1.333v-1.665h5.7c.72 0 1.3-.562 1.3-1.3v-18.35c0-.738-.58-1.333-1.3-1.333H32zm2.7 2.998h18c.554 0 1 .446 1 1v12.988c0 .554-.446 1-1 1H23c-.554 0-1-.446-1-1V21.997c0-.553.45-.938 1-.999z"/><path style="fill:#f4f4f7" d="M20.3 17c-.72 0-1.3.596-1.3 1.334v18.35c0 .738.58 1.3 1.3 1.3H26v1.664c0 .738.596 1.483 1.3 1.333h9.4c.72 0 1.3-.595 1.3-1.333v-1.665h5.7c.72 0 1.3-.561 1.3-1.3v-18.35c0-.737-.583-1.27-1.3-1.332H32zm2.7 2.998h18c.554 0 1 .446 1 1v12.988c0 .554-.446 1-1 1H23c-.554 0-1-.446-1-1V20.998c0-.554.45-.938 1-1z"/></svg>
